svgs/sharp-light/calendar-users.svg

<svg xmlns="http://www.w3.org/2000/svg" viewBox="0 0 640 512"><!--! Font Awesome Pro 6.6.0 by @fontawesome - https://fontawesome.com License - https://fontawesome.com/license (Commercial License) Copyright 2024 Fonticons, Inc. --><path d="M224 16l0-16L192 0l0 16 0 48-64 0L96 64l0 32 0 64 0 32 16 0 16 0 32 0 320 0 32 0 16 0 16 0 0-32 0-64 0-32-32 0-64 0 0-48 0-16L416 0l0 16 0 48L224 64l0-48zM379.2 512l11.2-32-140.8 0 11.2 32 118.4 0zM128 96l384 0 0 64-384 0 0-64zM112 256a48 48 0 1 1 0 96 48 48 0 1 1 0-96zM55.1 448l113.9 0 10.7 32L44.4 480l10.7-32zm158.3 32L192 416l-80 0-80 0L10.7 480 0 512l33.7 0 156.5 0 33.7 0-10.7-32zM192 304A80 80 0 1 0 32 304a80 80 0 1 0 160 0zm288 0a48 48 0 1 1 96 0 48 48 0 1 1 -96 0zM460.4 480l10.7-32 113.9 0 10.7 32-135.2 0zM608 416l-80 0-80 0-21.3 64L416 512l33.7 0 156.5 0 33.7 0-10.7-32L608 416zm-80-32a80 80 0 1 0 0-160 80 80 0 1 0 0 160z"/></svg>

<svg xmlns="http://www.w3.org/2000/svg" viewBox="0 0 640 512"><!--! Font Awesome Pro 6.4.2 by @fontawesome - https://fontawesome.com License - https://fontawesome.com/license (Commercial License) Copyright 2023 Fonticons, Inc. --><path d="M224 16V0H192V16 64H128 96V96v64 32h16 16 32H480h32 16 16V160 96 64H512 448V16 0H416V16 64H224V16zM379.2 512l11.2-32H249.6l11.2 32H379.2zM128 96H512v64H128V96zM112 256a48 48 0 1 1 0 96 48 48 0 1 1 0-96zM55.1 448H168.9l10.7 32H44.4l10.7-32zm158.3 32L192 416H112 32L10.7 480 0 512H33.7 190.3 224l-10.7-32zM192 304A80 80 0 1 0 32 304a80 80 0 1 0 160 0zm288 0a48 48 0 1 1 96 0 48 48 0 1 1 -96 0zM460.4 480l10.7-32H584.9l10.7 32H460.4zM608 416H528 448l-21.3 64L416 512h33.7H606.3 640l-10.7-32L608 416zm-80-32a80 80 0 1 0 0-160 80 80 0 1 0 0 160z"/></svg>
